X: 1
T: The Spotted Dog
R: jig
M: 6/8
L: 1/8
K: Amaj
|:EAA ABc|B{c}AF AFE|FBB Bce|(3fga f ecA|
EAA ABc|B{c}AF Ace|f2a e2a|1 ABc B{c}AF:|2 ABc B2{c}A||
|:cee ece|fec ecA|cee ecA|EFA B2{c}A|
cee ece|fec e2a|f2a e2a|ABc B2{c}A:|


Tune 3967	Setting 16828

